automatic/svg/screenshot.svg

<?xml version="1.0" encoding="UTF-8" standalone="no"?>
<svg
   xmlns:dc="http://purl.org/dc/elements/1.1/"
   xmlns:cc="http://creativecommons.org/ns#"
   xmlns:rdf="http://www.w3.org/1999/02/22-rdf-syntax-ns#"
   xmlns:svg="http://www.w3.org/2000/svg"
   xmlns="http://www.w3.org/2000/svg"
   viewBox="0 0 320 320"
   height="320"
   width="320"
   xml:space="preserve"
   version="1.1"
   id="svg2"><metadata
     id="metadata8"><rdf:RDF><cc:Work
         rdf:about=""><dc:format>image/svg+xml</dc:format><dc:type
           rdf:resource="http://purl.org/dc/dcmitype/StillImage" /></cc:Work></rdf:RDF></metadata><defs
     id="defs6"><clipPath
       id="clipPath28"
       clipPathUnits="userSpaceOnUse"><path
         id="path30"
         d="M 0,256 256,256 256,0 0,0 0,256 Z" /></clipPath></defs><g
     transform="matrix(1.25,0,0,-1.25,0,320)"
     id="g10"><g
       transform="translate(160,132)"
       id="g12"><path
         id="path14"
         style="fill:#f2f2f2;fill-opacity:1;fill-rule:nonzero;stroke:none"
         d="M 0,0 2,0 4,0 4,4 4,6 4,8 2,8 0,8 -4,8 -4,6 -4,4 0,4 0,0 Z" /></g><g
       transform="translate(160,84)"
       id="g16"><path
         id="path18"
         style="fill:#f2f2f2;fill-opacity:1;fill-rule:nonzero;stroke:none"
         d="m 0,0 0,-4 -4,0 0,-2 0,-2 4,0 2,0 2,0 0,2 0,2 0,4 -2,0 -2,0 z" /></g><g
       transform="translate(96,84)"
       id="g20"><path
         id="path22"
         style="fill:#f2f2f2;fill-opacity:1;fill-rule:nonzero;stroke:none"
         d="m 0,0 -2,0 -2,0 0,-4 0,-2 0,-2 2,0 2,0 4,0 0,2 0,2 -4,0 0,4 z" /></g><g
       id="g24"><g
         clip-path="url(#clipPath28)"
         id="g26"><g
           transform="translate(128,136)"
           id="g32"><path
             id="path34"
             style="fill:#f2f2f2;fill-opacity:1;fill-rule:nonzero;stroke:none"
             d="m 0,0 c 23.245,0 28,-4.71 28,-28 0,-23.288 -4.678,-28 -28,-28 -23.319,0 -28,4.722 -28,28 0,23.278 4.755,28 28,28 m -32,-28 c 0,-26.604 5.351,-32 32,-32 26.653,0 32,5.386 32,32 C 32,-1.383 26.566,4 0,4 -26.565,4 -32,-1.396 -32,-28" /></g><g
           transform="translate(172,140)"
           id="g36"><path
             id="path38"
             style="fill:#f2f2f2;fill-opacity:1;fill-rule:nonzero;stroke:none"
             d="m 0,0 0,-8 0,-64 -88,0 0,120 12,0 28,0 4,0 L -44,4 0,4 0,0 Z M -40,42.343 -5.657,8 -40,8 l 0,34.343 z m -4,9.657 -48,0 0,-128 96,0 0,80 -48,48 z" /></g><g
           transform="translate(96,132)"
           id="g40"><path
             id="path42"
             style="fill:#f2f2f2;fill-opacity:1;fill-rule:nonzero;stroke:none"
             d="M 0,0 0,4 4,4 4,6 4,8 0,8 -2,8 -4,8 -4,6 -4,4 -4,0 -2,0 0,0 Z" /></g><g
           transform="translate(124,96)"
           id="g44"><path
             id="path46"
             style="fill:#f2f2f2;fill-opacity:1;fill-rule:nonzero;stroke:none"
             d="m 0,0 8,0 0,8 8,0 0,8 -8,0 0,8 -8,0 0,-8 -8,0 0,-8 8,0 0,-8 z" /></g></g></g></g></svg>

<?xml version="1.0" encoding="UTF-8" standalone="no"?>
<svg
   xmlns:dc="http://purl.org/dc/elements/1.1/"
   xmlns:cc="http://creativecommons.org/ns#"
   xmlns:rdf="http://www.w3.org/1999/02/22-rdf-syntax-ns#"
   xmlns:svg="http://www.w3.org/2000/svg"
   xmlns="http://www.w3.org/2000/svg"
   viewBox="0 0 128 170.66665"
   height="170.66666"
   width="128"
   xml:space="preserve"
   id="svg2"
   version="1.1"><metadata
     id="metadata8"><rdf:RDF><cc:Work
         rdf:about=""><dc:format>image/svg+xml</dc:format><dc:type
           rdf:resource="http://purl.org/dc/dcmitype/StillImage" /></cc:Work></rdf:RDF></metadata><defs
     id="defs6"><clipPath
       id="clipPath30"
       clipPathUnits="userSpaceOnUse"><path
         id="path28"
         d="M 0,256 H 256 V 0 H 0 Z" /></clipPath></defs><g
     transform="matrix(1.3333333,0,0,-1.3333333,-106.66666,255.99999)"
     id="g10"><g
       transform="translate(160,132)"
       id="g12"><path
         id="path14"
         style="fill:#f2f2f2;fill-opacity:1;fill-rule:nonzero;stroke:none"
         d="M 0,0 H 2 4 V 4 6 8 H 2 0 -4 V 6 4 h 4 z" /></g><g
       transform="translate(160,84)"
       id="g16"><path
         id="path18"
         style="fill:#f2f2f2;fill-opacity:1;fill-rule:nonzero;stroke:none"
         d="m 0,0 v -4 h -4 v -2 -2 h 4 2 2 v 2 2 4 H 2 Z" /></g><g
       transform="translate(96,84)"
       id="g20"><path
         id="path22"
         style="fill:#f2f2f2;fill-opacity:1;fill-rule:nonzero;stroke:none"
         d="m 0,0 h -2 -2 v -4 -2 -2 h 2 2 4 v 2 2 H 0 Z" /></g><g
       id="g24"><g
         clip-path="url(#clipPath30)"
         id="g26"><g
           transform="translate(128,136)"
           id="g32"><path
             id="path34"
             style="fill:#f2f2f2;fill-opacity:1;fill-rule:nonzero;stroke:none"
             d="m 0,0 c 23.245,0 28,-4.71 28,-28 0,-23.288 -4.678,-28 -28,-28 -23.319,0 -28,4.722 -28,28 0,23.278 4.755,28 28,28 m -32,-28 c 0,-26.604 5.351,-32 32,-32 26.653,0 32,5.386 32,32 C 32,-1.383 26.566,4 0,4 -26.565,4 -32,-1.396 -32,-28" /></g><g
           transform="translate(172,140)"
           id="g36"><path
             id="path38"
             style="fill:#f2f2f2;fill-opacity:1;fill-rule:nonzero;stroke:none"
             d="M 0,0 V -8 -72 H -88 V 48 h 12 28 4 V 4 H 0 Z M -40,42.343 -5.657,8 H -40 Z M -44,52 H -92 V -76 H 4 V 4 Z" /></g><g
           transform="translate(96,132)"
           id="g40"><path
             id="path42"
             style="fill:#f2f2f2;fill-opacity:1;fill-rule:nonzero;stroke:none"
             d="M 0,0 V 4 H 4 V 6 8 H 0 -2 -4 V 6 4 0 h 2 z" /></g><g
           transform="translate(124,96)"
           id="g44"><path
             id="path46"
             style="fill:#f2f2f2;fill-opacity:1;fill-rule:nonzero;stroke:none"
             d="m 0,0 h 8 v 8 h 8 v 8 H 8 v 8 H 0 V 16 H -8 V 8 h 8 z" /></g></g></g></g></svg>
